images/org-warning-btn.svg

<svg width="20" height="20" viewBox="0 0 20 20" fill="none" xmlns="http://www.w3.org/2000/svg">
<rect x="10.335" y="0.113346" width="13.3463" height="14" transform="rotate(46 10.335 0.113346)" fill="white"/>
<rect x="0.5" y="0.5" width="19" height="19" rx="2.5" fill="white" stroke="#1E2023"/>
<path fill-rule="evenodd" clip-rule="evenodd" d="M8.67061 1.40246C8.96158 1.13325 9.33413 1 9.70396 1C10.0738 1 10.4382 1.13597 10.7156 1.41334L17.9925 8.69032C18.5473 9.24507 18.5391 10.1669 17.9599 10.7461L10.7156 17.9905L10.7047 18.0014C10.1214 18.5398 9.21448 18.5452 8.65973 17.9905L1.41538 10.7461L1.40451 10.7353C0.866075 10.152 0.860636 9.24507 1.41538 8.69032L8.65973 1.41334L8.67061 1.40246ZM10.2261 1.90282C10.086 1.76278 9.88887 1.69615 9.69308 1.69615C9.50137 1.69615 9.30829 1.76142 9.13833 1.9137L1.90487 9.1798C1.80017 9.2845 1.73627 9.4191 1.70907 9.56051C1.69955 9.6081 1.6982 9.65297 1.6982 9.70192C1.69684 9.89635 1.7621 10.0962 1.91574 10.2675L9.14921 17.501C9.42659 17.7784 9.90383 17.7879 10.237 17.4901L17.4595 10.2567C17.7859 9.93034 17.7845 9.46125 17.5031 9.1798L10.2261 1.90282ZM9.29062 5.87307C9.18592 5.87307 9.14921 5.94514 9.14921 6.01448V11.0616C9.14921 11.1663 9.22127 11.203 9.29062 11.203H10.0847C10.1894 11.203 10.2261 11.1309 10.2261 11.0616V6.01448C10.2261 5.90978 10.154 5.87307 10.0847 5.87307H9.29062ZM9.14921 12.4865C9.14921 12.4172 9.18592 12.3451 9.29062 12.3451H10.1173V12.3778C10.1866 12.3778 10.2587 12.4145 10.2587 12.5192V13.422C10.2587 13.4913 10.222 13.5634 10.1173 13.5634H9.29062C9.22127 13.5634 9.14921 13.5267 9.14921 13.422V12.4865Z" fill="black"/>
</svg>

<svg width="20" height="20" fill="none" xmlns="http://www.w3.org/2000/svg"><path fill="#fff" d="M10.335.113l9.271 9.6-10.07 9.726-9.272-9.6z"/><rect x=".5" y=".5" width="19" height="19" rx="2.5" fill="#fff" stroke="#1E2023"/><path fill-rule="evenodd" clip-rule="evenodd" d="M8.67 1.402C8.963 1.133 9.335 1 9.705 1s.734.136 1.012.413l7.277 7.277c.554.555.546 1.477-.033 2.056l-7.244 7.245-.011.01c-.584.539-1.49.544-2.045-.01l-7.245-7.245-.01-.01c-.539-.584-.544-1.49.01-2.046L8.66 1.413l.01-.01zm1.556.5a.751.751 0 00-.533-.206.817.817 0 00-.555.218L1.905 9.18a.729.729 0 00-.207.522.828.828 0 00.218.566L9.149 17.5c.278.277.755.287 1.088-.01l7.222-7.234c.327-.327.326-.796.044-1.077l-7.277-7.277zm-.935 3.971c-.105 0-.142.072-.142.141v5.048c0 .104.072.141.142.141h.794c.104 0 .141-.072.141-.141V6.014c0-.104-.072-.14-.141-.14H9.29zm-.142 6.613c0-.069.037-.14.142-.14h.826v.032c.07 0 .142.037.142.141v.903c0 .07-.037.141-.142.141h-.826c-.07 0-.142-.036-.142-.141v-.936z" fill="#000"/></svg>
